public/ryota_logo.svg

<svg height="240" viewBox="0 0 512 240" width="512" xmlns="http://www.w3.org/2000/svg"><path d="m43.4568 85.7545c1.1534 3.8158 1.4248 21.6225.5428 30.5265-.475 4.753-2.0355 14.058-2.3069 15.799-.2036 1.74-.6785 4.552-1.0178 6.226-.3392 1.673-.8142 4.217-1.0856 5.69-.2035 1.473-.6785 3.749-1.0177 5.021-.2714 1.272-.8821 4.485-1.357 7.029-.4071 2.611-1.0178 5.891-1.357 7.364-.2714 1.472-.8821 4.82-1.357 7.364-1.0856 6.493-2.1712 10.376-3.3247 11.246-.7463.603-1.4927.134-3.7317-2.276-2.9854-3.28-5.1566-8.368-6.5136-15.129-.9499-4.619-.5428-21.489.6785-28.987 1.1535-7.096 2.714-23.431 2.714-28.117-.0678-2.41-.4749-7.364-1.0856-11.0454-.5428-3.682-1.0856-7.297-1.1534-7.9664-.1357-1.3389 1.6284-1.8744 12.4165-3.6819 8.142-1.3389 8.2777-1.3389 8.9562.9372zm28.5742-28.7545c4.8021 0 9.4132.5424 13.8332 1.6272 4.4201 1.0848 8.2945 2.7799 11.6232 5.0851 3.3286 2.3052 5.9886 5.302 7.9806 8.9903 1.992 3.6884 2.988 8.1361 2.988 13.3432 0 2.7663-.464 5.6004-1.392 8.5022-.927 2.9019-2.455 5.804-4.584 8.706-2.128 2.902-4.9517 5.776-8.4714 8.624-3.5196 2.848-7.8715 5.573-13.0556 8.177 1.9243 1.777 6.1144 2.987 13.0556 10.343 5.1423 5.449 7.6374 10.356 9.8674 16.338 1.096 2.943 1.645 5.882 3.188 10.731 1.335 4.192 2.906 6.804 6.506 9.495 1.639 1.226 4.086 3.135 6.783 4.033 3.844 1.28 8.101 1.294 10.444 1.082 3.987-.362 6.305-2.299 6.474-2.329.149-.026-2.982 4.779-11.281 7.578-2.358.557-4.594 1.067-6.399 1.128-2.075 0-3.791-.081-6.74-.297-3.953-.289-10.39-1.728-14.1037-3.39-3.1899-1.765-6.2725-3.741-9.0784-9.415-1.3416-2.713-2.2904-7.801-3.8047-10.939-1.5142-3.138-6.5892-10.117-9.8633-13.1s-6.483-5.233-11.8257-7.662c-.4946-.225-2.241-1.171-6.4189-2.262-3.528-.921-3.6542-.954-9.889-1.785.3854-.144 8.2804-.258 11.2347-.876 3.7708-.789 6.8324-2.99 9.9823-4.849 3.4924-2.062 6.5346-4.421 9.1266-7.079 2.5921-2.658 4.6384-5.627 6.1391-8.909 1.5006-3.281 2.2509-6.902 2.2509-10.8615 0-4.7731-.9822-8.9497-2.9467-12.5295-1.9645-3.5799-4.5156-6.5631-7.6533-8.9497s-6.6983-4.1765-10.6819-5.3698c-3.9835-1.1933-7.9943-1.79-12.0324-1.79-3.2742 0-6.4119.1627-9.4132.4882-6.3511.5106-13.1722 1.1615-20.4633 1.9526-1.4188.1628-2.8103.2577-4.1745.2848-1.3643.0271-2.7558.0407-4.1746.0407-2.0736 0-4.4064-.0543-6.99844-.1627-2.59202-.1085-5.27954-.3255-8.06256-.6509l20.7089-13.0178c4.2564.5967 8.2672 1.0035 12.0325 1.2205 3.7652.2169 6.8757.3254 9.3313.3254 2.7284 0 5.3614-.0949 7.8988-.2848 2.5375-.1898 5.034-.4068 7.4896-.6508 2.4556-.2441 4.8839-.4611 7.285-.6509 2.401-.1899 4.8293-.2848 7.2849-.2848zm57.45 180c.441 0 .883-.111 1.324-.333.442-.223.81-.531 1.104-.926s.503-.852.625-1.371c.123-.518.111-1.074-.036-1.666-.246-.938-.368-2.124-.368-3.556s.269-3.16.809-5.185c.54-2.024 1.459-4.42 2.759-7.185s3.152-5.95 5.556-9.555c2.403-3.605 5.666-7.766 9.786-12.482 4.121-4.716 8.707-9.765 13.76-15.147 5.053-5.383 10.351-10.988 15.894-16.815s10.939-11.629 16.188-17.407c4.121-4.494 7.481-8.741 10.081-12.741s4.648-7.703 6.144-11.111c1.496-3.407 2.526-6.518 3.09-9.333s.846-5.308.846-7.481c0-.938-.061-2.025-.183-3.259-.123-1.235-.381-2.3954-.773-3.4818-.393-1.0864-.981-2-1.766-2.7407s-1.84-1.1111-3.164-1.1111c-1.864 0-3.716.4815-5.556 1.4444-1.839.963-3.605 2.1728-5.297 3.6296-1.693 1.4566-3.287 3.0246-4.783 4.7036s-2.809 3.21-3.937 4.593c1.374-.247 2.6-.173 3.679.222s1.962 1.074 2.649 2.037 1.214 2.173 1.582 3.629c.368 1.457.552 3.099.552 4.926 0 2.025-.478 4.333-1.435 6.926-.956 2.593-2.281 5.395-3.973 8.407-1.693 3.013-3.667 6.185-5.924 9.519-2.256 3.333-4.709 6.728-7.358 10.185-1.521-6.864-3.323-13.222-5.408-19.074s-4.194-11.074-6.328-15.667c-2.134-4.592-4.121-8.506-5.96-11.74-1.84-3.235-3.275-5.691-4.305-7.37-1.079-1.6793-2.244-2.8892-3.495-3.6299s-2.588-1.1111-4.01-1.1111c-2.061 0-4.158.5062-6.292 1.5185s-4.206 2.2592-6.217 3.7405c-2.012 1.482-3.925 3.087-5.74 4.815s-3.434 3.284-4.856 4.667c1.226-.692 2.428-1.247 3.605-1.667 1.178-.42 2.33-.63 3.459-.63 2.747 0 5.322 1.111 7.726 3.334 2.404 2.222 4.636 5.148 6.696 8.777 2.06 3.63 3.936 7.765 5.629 12.407 1.692 4.642 3.188 9.371 4.488 14.185 1.3 4.815 2.429 9.531 3.385 14.148.957 4.617 1.705 8.704 2.244 12.259-4.316 5.087-8.511 9.938-12.582 14.556-4.072 4.617-7.702 8.703-10.89 12.259-2.6 2.913-4.955 5.987-7.064 9.222-2.11 3.234-3.9 6.37-5.372 9.407-1.471 3.037-2.551 5.852-3.237 8.444-.687 2.593-.859 4.655-.515 6.185.343 1.284.809 2.21 1.398 2.778.588.568 1.177.852 1.766.852zm138.518-59.381c3.564 0 7.028-.466 10.393-1.398 3.365-.931 6.644-2.169 9.836-3.714 3.192-1.544 6.297-3.297 9.316-5.258s5.964-3.971 8.834-6.03c.99-.736 2.301-1.937 3.934-3.604s3.242-3.751 4.825-6.251c1.584-2.501 2.945-5.418 4.083-8.752s1.708-7.035 1.708-11.105c0-4.804-.854-9.266-2.561-13.384-1.708-4.119-4.108-7.686-7.201-10.701s-6.78-5.369-11.061-7.06c-4.281-1.6915-8.994-2.5373-14.141-2.5373-4.157 0-8.463.5148-12.917 1.5444-4.454 1.0299-8.784 2.5249-12.99 4.4859-4.207 1.961-8.191 4.352-11.952 7.171s-7.04 5.993-9.836 9.523-5.023 7.391-6.681 11.583-2.487 8.666-2.487 13.422c0 5.393 1.027 10.1 3.081 14.12s4.85 7.354 8.388 10.002c3.539 2.647 7.671 4.633 12.397 5.957 4.727 1.324 9.737 1.986 15.032 1.986zm11.917-8.351c-4.44 0-8.621-.841-12.543-2.524-3.922-1.682-7.351-4.008-10.286-6.977s-5.242-6.445-6.919-10.429c-1.677-3.983-2.516-8.276-2.516-12.878 0-2.029.185-4.194.555-6.495s.937-4.577 1.702-6.829c.765-2.251 1.727-4.404 2.886-6.458 1.159-2.053 2.541-3.859 4.144-5.418s3.441-2.796 5.513-3.712c2.072-.915 4.366-1.373 6.882-1.373 4.44 0 8.608.94 12.506 2.821 3.897 1.88 7.301 4.404 10.211 7.571 2.911 3.167 5.205 6.829 6.882 10.986 1.678 4.156 2.516 8.486 2.516 12.989 0 5.147-.604 9.538-1.813 13.176-1.208 3.637-2.812 6.606-4.81 8.907s-4.292 3.983-6.882 5.047c-2.589 1.064-5.266 1.596-8.028 1.596zm84.717 8.293c2.82.197 5.85-.112 9.09-.927 3.24-.816 6.629-2.064 10.166-3.745s7.185-3.758 10.945-6.23c3.759-2.472 7.568-5.265 11.427-8.38-3.71 2.373-7.359 4.079-10.945 5.117-3.587 1.038-6.938 1.557-10.055 1.557-3.067 0-5.862-.432-8.384-1.297-2.523-.866-4.712-2.015-6.567-3.449-1.856-1.434-3.302-3.115-4.341-5.043s-1.583-3.98-1.633-6.155c0-6.625.025-13.349.074-20.172.05-6.823.124-13.769.223-20.839 3.562-.198 7.161-.593 10.797-1.187 3.636-.593 7.185-1.471 10.648-2.632 3.462-1.162 6.789-2.658 9.98-4.4871 3.191-1.8293 6.122-4.0788 8.793-6.7486-.94.4449-2.09.8404-3.45 1.1865-1.361.3461-2.832.6304-4.415.8529s-3.228.4079-4.935.5562-3.376.2472-5.009.2966c-3.809.1978-7.84.2472-12.095.1484l-3.599-.0011c-.824-.0034-1.752-.0154-2.782-.036-1.237-.0247-2.498-.0618-3.785-.1113l.297-24.918c-1.039.8405-2.424 1.854-4.155 3.0406-1.484.9888-3.413 2.2001-5.788 3.6339-2.374 1.4338-5.293 3.0159-8.756 4.7463 0 4.944-.371 8.8745-1.113 11.7915s-1.558 5.1666-2.449 6.7482c-1.038 1.83-2.226 3.091-3.561 3.783-1.336.939-2.721 1.878-4.156 2.818-1.236.84-2.609 1.755-4.118 2.744s-3.005 1.953-4.489 2.892c1.83-.939 3.685-1.718 5.565-2.336s3.698-1.112 5.454-1.483 3.388-.631 4.897-.779 2.783-.272 3.822-.371c-.099 6.526-.198 12.237-.297 17.131-.099 4.895-.198 8.999-.297 12.311-.148 3.856-.247 7.194-.297 10.012-.148 5.24.248 9.715 1.188 13.423.939 3.708 2.275 6.748 4.007 9.122 1.731 2.373 3.796 4.153 6.195 5.339 2.4 1.187 5.034 1.879 7.903 2.077zm116.251-.045c1.626.123 2.956.135 3.991.037 1.872-.098 3.942-.516 6.209-1.254 2.266-.737 4.607-1.721 7.021-2.95s4.816-2.692 7.206-4.388c2.39-1.697 4.62-3.577 6.689-5.643-2.217.787-4.361 1.414-6.43 1.881-2.07.467-4.016.701-5.839.701-3.055 0-5.309-.639-6.763-1.918-1.453-1.278-2.427-2.95-2.919-5.015-.493-2.065-.69-4.401-.592-7.007.099-2.606.148-5.261.148-7.965 0-2.655.025-5.384.074-8.187s.123-5.912.222-9.33c.098-3.417.222-7.289.37-11.616.147-4.327.32-9.318.517-14.9721-4.78-.8359-9.042-1.3891-12.787-1.6595-3.744-.2704-6.996-.4057-9.756-.4057-2.66 0-5.568.2951-8.721.8851-3.154.59-6.393 1.4262-9.719 2.5072-3.326 1.082-6.664 2.361-10.015 3.836s-6.516 3.122-9.497 4.941-5.728 3.762-8.241 5.827-4.583 4.204-6.209 6.416c-.887 1.18-1.737 2.68-2.55 4.499-.813 1.82-1.527 3.86-2.143 6.122s-1.121 4.659-1.515 7.191-.592 5.101-.592 7.707c0 3.491.518 7.007 1.553 10.547 1.034 3.54 2.586 6.736 4.656 9.588 2.069 2.852 4.632 5.175 7.687 6.97 3.054 1.795 6.602 2.692 10.643 2.692 3.153 0 6.356-.553 9.608-1.659 3.252-1.107 6.467-2.606 9.645-4.499 3.178-1.894 6.27-4.057 9.276-6.491 3.005-2.434 5.863-4.978 8.573-7.633v8.776c0 2.901.542 5.139 1.626 6.712s2.378 2.729 3.881 3.466c1.503.738 3.067 1.168 4.693 1.291zm-33.083-12.887c-3.387 0-6.394-.801-9.021-2.401-2.626-1.601-4.835-3.683-6.627-6.244s-3.154-5.455-4.087-8.682c-.933-3.226-1.399-6.44-1.399-9.642 0-3.35.38-6.601 1.141-9.753.761-3.153 1.681-5.985 2.762-8.497 1.08-2.513 2.209-4.618 3.387-6.318 1.178-1.699 2.209-2.771 3.093-3.214.491-.295 1.203-.554 2.135-.776.933-.221 2.013-.406 3.24-.554 1.228-.148 2.59-.271 4.087-.369 1.498-.099 3.081-.148 4.75-.148 3.044 0 6.235.16 9.573.48s6.48.875 9.426 1.663c-.049 3.99-.086 7.647-.111 10.972-.024 3.325-.036 6.391-.036 9.199v14.334c-.737 2.808-1.706 5.419-2.909 7.832-1.203 2.414-2.713 4.52-4.529 6.318s-3.952 3.214-6.407 4.248c-2.454 1.035-5.277 1.552-8.468 1.552z"/></svg>

<svg width="512" height="240" viewBox="0 0 512 240" fill="#000" xmlns="http://www.w3.org/2000/svg">
<path d="M43.4568 85.7545C44.6102 89.5703 44.8816 107.377 43.9996 116.281C43.5246 121.034 41.9641 130.339 41.6927 132.08C41.4891 133.82 41.0142 136.632 40.6749 138.306C40.3357 139.979 39.8607 142.523 39.5893 143.996C39.3858 145.469 38.9108 147.745 38.5716 149.017C38.3002 150.289 37.6895 153.502 37.2146 156.046C36.8075 158.657 36.1968 161.937 35.8576 163.41C35.5862 164.882 34.9755 168.23 34.5006 170.774C33.415 177.267 32.3294 181.15 31.1759 182.02C30.4296 182.623 29.6832 182.154 27.4442 179.744C24.4588 176.464 22.2876 171.376 20.9306 164.615C19.9807 159.996 20.3878 143.126 21.6091 135.628C22.7626 128.532 24.3231 112.197 24.3231 107.511C24.2553 105.101 23.8482 100.147 23.2375 96.4656C22.6947 92.7836 22.1519 89.1686 22.0841 88.4992C21.9484 87.1603 23.7125 86.6248 34.5006 84.8173C42.6426 83.4784 42.7783 83.4784 43.4568 85.7545ZM72.031 57C76.8331 57 81.4442 57.5424 85.8642 58.6272C90.2843 59.712 94.1587 61.4071 97.4874 63.7123C100.816 66.0175 103.476 69.0143 105.468 72.7026C107.46 76.391 108.456 80.8387 108.456 86.0458C108.456 88.8121 107.992 91.6462 107.064 94.548C106.137 97.4499 104.609 100.352 102.48 103.254C100.352 106.156 97.5283 109.03 94.0086 111.878C90.489 114.726 86.1371 117.451 80.953 120.055C82.8773 121.832 87.0674 123.042 94.0086 130.398C99.1509 135.847 101.646 140.754 103.876 146.736C104.972 149.679 105.521 152.618 107.064 157.467C108.399 161.659 109.97 164.271 113.57 166.962C115.209 168.188 117.656 170.097 120.353 170.995C124.197 172.275 128.454 172.289 130.797 172.077C134.784 171.715 137.102 169.778 137.271 169.748C137.42 169.722 134.289 174.527 125.99 177.326C123.632 177.883 121.396 178.393 119.591 178.454C117.516 178.454 115.8 178.373 112.851 178.157C108.898 177.868 102.461 176.429 98.7473 174.767C95.5574 173.002 92.4748 171.026 89.6689 165.352C88.3273 162.639 87.3785 157.551 85.8642 154.413C84.35 151.275 79.275 144.296 76.0009 141.313C72.7268 138.33 69.5179 136.08 64.1752 133.651C63.6806 133.426 61.9342 132.48 57.7563 131.389C54.2283 130.468 54.1021 130.435 47.8673 129.604C48.2527 129.46 56.1477 129.346 59.102 128.728C62.8728 127.939 65.9344 125.738 69.0843 123.879C72.5767 121.817 75.6189 119.458 78.2109 116.8C80.803 114.142 82.8493 111.173 84.35 107.891C85.8506 104.61 86.6009 100.989 86.6009 97.0295C86.6009 92.2564 85.6187 88.0798 83.6542 84.5C81.6897 80.9201 79.1386 77.9369 76.0009 75.5503C72.8632 73.1637 69.3026 71.3738 65.319 70.1805C61.3355 68.9872 57.3247 68.3905 53.2866 68.3905C50.0124 68.3905 46.8747 68.5532 43.8734 68.8787C37.5223 69.3893 30.7012 70.0402 23.4101 70.8313C21.9913 70.9941 20.5998 71.089 19.2356 71.1161C17.8713 71.1432 16.4798 71.1568 15.061 71.1568C12.9874 71.1568 10.6546 71.1025 8.06256 70.9941C5.47054 70.8856 2.78302 70.6686 0 70.3432L20.7089 57.3254C24.9653 57.9221 28.9761 58.3289 32.7414 58.5459C36.5066 58.7628 39.6171 58.8713 42.0727 58.8713C44.8011 58.8713 47.4341 58.7764 49.9715 58.5865C52.509 58.3967 55.0055 58.1797 57.4611 57.9357C59.9167 57.6916 62.345 57.4746 64.7461 57.2848C67.1471 57.0949 69.5754 57 72.031 57ZM129.481 237C129.922 237 130.364 236.889 130.805 236.667C131.247 236.444 131.615 236.136 131.909 235.741C132.203 235.346 132.412 234.889 132.534 234.37C132.657 233.852 132.645 233.296 132.498 232.704C132.252 231.766 132.13 230.58 132.13 229.148C132.13 227.716 132.399 225.988 132.939 223.963C133.479 221.939 134.398 219.543 135.698 216.778C136.998 214.013 138.85 210.828 141.254 207.223C143.657 203.618 146.92 199.457 151.04 194.741C155.161 190.025 159.747 184.976 164.8 179.594C169.853 174.211 175.151 168.606 180.694 162.779C186.237 156.952 191.633 151.15 196.882 145.372C201.003 140.878 204.363 136.631 206.963 132.631C209.563 128.631 211.611 124.928 213.107 121.52C214.603 118.113 215.633 115.002 216.197 112.187C216.761 109.372 217.043 106.879 217.043 104.706C217.043 103.768 216.982 102.681 216.86 101.447C216.737 100.212 216.479 99.0516 216.087 97.9652C215.694 96.8788 215.106 95.9652 214.321 95.2245C213.536 94.4838 212.481 94.1134 211.157 94.1134C209.293 94.1134 207.441 94.5949 205.601 95.5578C203.762 96.5208 201.996 97.7306 200.304 99.1874C198.611 100.644 197.017 102.212 195.521 103.891C194.025 105.57 192.712 107.101 191.584 108.484C192.958 108.237 194.184 108.311 195.263 108.706C196.342 109.101 197.225 109.78 197.912 110.743C198.599 111.706 199.126 112.916 199.494 114.372C199.862 115.829 200.046 117.471 200.046 119.298C200.046 121.323 199.568 123.631 198.611 126.224C197.655 128.817 196.33 131.619 194.638 134.631C192.945 137.644 190.971 140.816 188.714 144.15C186.458 147.483 184.005 150.878 181.356 154.335C179.835 147.471 178.033 141.113 175.948 135.261C173.863 129.409 171.754 124.187 169.62 119.594C167.486 115.002 165.499 111.088 163.66 107.854C161.82 104.619 160.385 102.163 159.355 100.484C158.276 98.8047 157.111 97.5948 155.86 96.8541C154.609 96.1134 153.272 95.743 151.85 95.743C149.789 95.743 147.692 96.2492 145.558 97.2615C143.424 98.2738 141.352 99.5207 139.341 101.002C137.329 102.484 135.416 104.089 133.601 105.817C131.786 107.545 130.167 109.101 128.745 110.484C129.971 109.792 131.173 109.237 132.35 108.817C133.528 108.397 134.68 108.187 135.809 108.187C138.556 108.187 141.131 109.298 143.535 111.521C145.939 113.743 148.171 116.669 150.231 120.298C152.291 123.928 154.167 128.063 155.86 132.705C157.552 137.347 159.048 142.076 160.348 146.89C161.648 151.705 162.777 156.421 163.733 161.038C164.69 165.655 165.438 169.742 165.977 173.297C161.661 178.384 157.466 183.235 153.395 187.853C149.323 192.47 145.693 196.556 142.505 200.112C139.905 203.025 137.55 206.099 135.441 209.334C133.331 212.568 131.541 215.704 130.069 218.741C128.598 221.778 127.518 224.593 126.832 227.185C126.145 229.778 125.973 231.84 126.317 233.37C126.66 234.654 127.126 235.58 127.715 236.148C128.303 236.716 128.892 237 129.481 237ZM267.999 177.619C271.563 177.619 275.027 177.153 278.392 176.221C281.757 175.29 285.036 174.052 288.228 172.507C291.42 170.963 294.525 169.21 297.544 167.249C300.563 165.288 303.508 163.278 306.378 161.219C307.368 160.483 308.679 159.282 310.312 157.615C311.945 155.948 313.554 153.864 315.137 151.364C316.721 148.863 318.082 145.946 319.22 142.612C320.358 139.278 320.928 135.577 320.928 131.507C320.928 126.703 320.074 122.241 318.367 118.123C316.659 114.004 314.259 110.437 311.166 107.422C308.073 104.407 304.386 102.053 300.105 100.362C295.824 98.6705 291.111 97.8247 285.964 97.8247C281.807 97.8247 277.501 98.3395 273.047 99.3691C268.593 100.399 264.263 101.894 260.057 103.855C255.85 105.816 251.866 108.207 248.105 111.026C244.344 113.845 241.065 117.019 238.269 120.549C235.473 124.079 233.246 127.94 231.588 132.132C229.93 136.324 229.101 140.798 229.101 145.554C229.101 150.947 230.128 155.654 232.182 159.674C234.236 163.694 237.032 167.028 240.57 169.676C244.109 172.323 248.241 174.309 252.967 175.633C257.694 176.957 262.704 177.619 267.999 177.619ZM279.916 169.268C275.476 169.268 271.295 168.427 267.373 166.744C263.451 165.062 260.022 162.736 257.087 159.767C254.152 156.798 251.845 153.322 250.168 149.338C248.491 145.355 247.652 141.062 247.652 136.46C247.652 134.431 247.837 132.266 248.207 129.965C248.577 127.664 249.144 125.388 249.909 123.136C250.674 120.885 251.636 118.732 252.795 116.678C253.954 114.625 255.336 112.819 256.939 111.26C258.542 109.701 260.38 108.464 262.452 107.548C264.524 106.633 266.818 106.175 269.334 106.175C273.774 106.175 277.942 107.115 281.84 108.996C285.737 110.876 289.141 113.4 292.051 116.567C294.962 119.734 297.256 123.396 298.933 127.553C300.611 131.709 301.449 136.039 301.449 140.542C301.449 145.689 300.845 150.08 299.636 153.718C298.428 157.355 296.824 160.324 294.826 162.625C292.828 164.926 290.534 166.608 287.944 167.672C285.355 168.736 282.678 169.268 279.916 169.268ZM364.633 177.561C367.453 177.758 370.483 177.449 373.723 176.634C376.963 175.818 380.352 174.57 383.889 172.889C387.426 171.208 391.074 169.131 394.834 166.659C398.593 164.187 402.402 161.394 406.261 158.279C402.551 160.652 398.902 162.358 395.316 163.396C391.729 164.434 388.378 164.953 385.261 164.953C382.194 164.953 379.399 164.521 376.877 163.656C374.354 162.79 372.165 161.641 370.31 160.207C368.454 158.773 367.008 157.092 365.969 155.164C364.93 153.236 364.386 151.184 364.336 149.009C364.336 142.384 364.361 135.66 364.41 128.837C364.46 122.014 364.534 115.068 364.633 107.998C368.195 107.8 371.794 107.405 375.43 106.811C379.066 106.218 382.615 105.34 386.078 104.179C389.54 103.017 392.867 101.521 396.058 99.6919C399.249 97.8626 402.18 95.6131 404.851 92.9433C403.911 93.3882 402.761 93.7837 401.401 94.1298C400.04 94.4759 398.569 94.7602 396.986 94.9827C395.403 95.2052 393.758 95.3906 392.051 95.5389C390.344 95.6872 388.675 95.7861 387.042 95.8355C383.233 96.0333 379.202 96.0827 374.947 95.9839L371.348 95.9828C370.524 95.9794 369.596 95.9674 368.566 95.9468C367.329 95.9221 366.068 95.885 364.781 95.8355L365.078 70.9175C364.039 71.758 362.654 72.7715 360.923 73.9581C359.439 74.9469 357.51 76.1582 355.135 77.592C352.761 79.0258 349.842 80.6079 346.379 82.3383C346.379 87.2823 346.008 91.2128 345.266 94.1298C344.524 97.0468 343.708 99.2964 342.817 100.878C341.779 102.708 340.591 103.969 339.256 104.661C337.92 105.6 336.535 106.539 335.1 107.479C333.864 108.319 332.491 109.234 330.982 110.223C329.473 111.212 327.977 112.176 326.493 113.115C328.323 112.176 330.178 111.397 332.058 110.779C333.938 110.161 335.756 109.667 337.512 109.296C339.268 108.925 340.9 108.665 342.409 108.517C343.918 108.369 345.192 108.245 346.231 108.146C346.132 114.672 346.033 120.383 345.934 125.277C345.835 130.172 345.736 134.276 345.637 137.588C345.489 141.444 345.39 144.782 345.34 147.6C345.192 152.84 345.588 157.315 346.528 161.023C347.467 164.731 348.803 167.771 350.535 170.145C352.266 172.518 354.331 174.298 356.73 175.484C359.13 176.671 361.764 177.363 364.633 177.561ZM480.884 177.516C482.51 177.639 483.84 177.651 484.875 177.553C486.747 177.455 488.817 177.037 491.084 176.299C493.35 175.562 495.691 174.578 498.105 173.349C500.519 172.12 502.921 170.657 505.311 168.961C507.701 167.264 509.931 165.384 512 163.318C509.783 164.105 507.639 164.732 505.57 165.199C503.5 165.666 501.554 165.9 499.731 165.9C496.676 165.9 494.422 165.261 492.968 163.982C491.515 162.704 490.541 161.032 490.049 158.967C489.556 156.902 489.359 154.566 489.457 151.96C489.556 149.354 489.605 146.699 489.605 143.995C489.605 141.34 489.63 138.611 489.679 135.808C489.728 133.005 489.802 129.896 489.901 126.478C489.999 123.061 490.123 119.189 490.271 114.862C490.418 110.535 490.591 105.544 490.788 99.8899C486.008 99.054 481.746 98.5008 478.001 98.2304C474.257 97.96 471.005 97.8247 468.245 97.8247C465.585 97.8247 462.677 98.1198 459.524 98.7098C456.37 99.2998 453.131 100.136 449.805 101.217C446.479 102.299 443.141 103.578 439.79 105.053C436.439 106.528 433.274 108.175 430.293 109.994C427.312 111.813 424.565 113.756 422.052 115.821C419.539 117.886 417.469 120.025 415.843 122.237C414.956 123.417 414.106 124.917 413.293 126.736C412.48 128.556 411.766 130.596 411.15 132.858C410.534 135.12 410.029 137.517 409.635 140.049C409.241 142.581 409.043 145.15 409.043 147.756C409.043 151.247 409.561 154.763 410.596 158.303C411.63 161.843 413.182 165.039 415.252 167.891C417.321 170.743 419.884 173.066 422.939 174.861C425.993 176.656 429.541 177.553 433.582 177.553C436.735 177.553 439.938 177 443.19 175.894C446.442 174.787 449.657 173.288 452.835 171.395C456.013 169.501 459.105 167.338 462.111 164.904C465.116 162.47 467.974 159.926 470.684 157.271V166.047C470.684 168.948 471.226 171.186 472.31 172.759C473.394 174.332 474.688 175.488 476.191 176.225C477.694 176.963 479.258 177.393 480.884 177.516ZM447.801 164.629C444.414 164.629 441.407 163.828 438.78 162.228C436.154 160.627 433.945 158.545 432.153 155.984C430.361 153.423 428.999 150.529 428.066 147.302C427.133 144.076 426.667 140.862 426.667 137.66C426.667 134.31 427.047 131.059 427.808 127.907C428.569 124.754 429.489 121.922 430.57 119.41C431.65 116.897 432.779 114.792 433.957 113.092C435.135 111.393 436.166 110.321 437.05 109.878C437.541 109.583 438.253 109.324 439.185 109.102C440.118 108.881 441.198 108.696 442.425 108.548C443.653 108.4 445.015 108.277 446.512 108.179C448.01 108.08 449.593 108.031 451.262 108.031C454.306 108.031 457.497 108.191 460.835 108.511C464.173 108.831 467.315 109.386 470.261 110.174C470.212 114.164 470.175 117.821 470.15 121.146C470.126 124.471 470.114 127.537 470.114 130.345V144.679C469.377 147.487 468.408 150.098 467.205 152.511C466.002 154.925 464.492 157.031 462.676 158.829C460.86 160.627 458.724 162.043 456.269 163.077C453.815 164.112 450.992 164.629 447.801 164.629Z" />
</svg>
